assets/img/hr/hero-hr-head-right-bot.svg

<svg xmlns="http://www.w3.org/2000/svg" width="100%" height="100%" viewBox="0 300 430 130" preserveAspectRatio="none"><path fill="#FFF" d="M360 0c47.084 0 70 65.402 70 100v240c0 20-10 90-80 90-37.355 0-63.754-31.915-67.062-67.375-2.714-29.09-13.719-51.219-13.719-51.219s18.706-.155 41 .032c19.177.16 31.75 5.562 31.75 5.562s-13.694 16.713-14.219 37.781c-.407 16.334 11.694 23.48 23.844 22.813 15.169-.834 24.563-17.241 24.5-33.156C375.927 302.764 330 300 310 300H111.656c-3.004-5.432-9-18.435-9.094-35.75-.103-19.213 6.485-32.425 7.438-34.25 61.602 0 149.967-.575 185.656-14.156 65.189-24.808 101.082-81.088 102.032-129.906.903-46.465-20.241-63.41-38.032-63.5-14.82-.076-20.666 8.313-20.437 17 .228 8.686 3.977 16.505 13.062 16.968 8.414.43 16.781-4.812 16.781-4.812s-3.469 12.246-17.312 12.062c-15.775-.21-25.719-11.819-25.719-29.062C326.031 21.057 334 0 360 0zm54.5 105.25c-5.401.224-11.547 5.548-10.938 18 .394 8.031 1.166 12.051 2.563 17.312 0 0 .952-.597 1.625-1.124.673-.528 1.125-1 1.125-1-1.512-4.97-2.275-9.048-2.313-15.188-.068-11.158 4.319-15.621 8.094-15.531.54.013 1.063.12 1.563.312 3.965 1.529 7.588 9.572 3.906 18.719-3.3 8.198-9.344 13.798-23.594 23.906-12.152 8.621-26.019 19.662-28.093 34.563a74.303 74.303 0 0 0-.719 10.625l1.437-1.313 2.282-1.562a82.338 82.338 0 0 1 1.031-6.625c2.839-14.392 12.273-21.408 25.125-30.719 11.294-8.182 23.674-17.693 26.281-27.187 3.259-11.871-1.513-21.669-7.125-23-.72-.171-1.478-.22-2.25-.188zm-2.719 42.562c-.269.204-.654.498-1.281 1a73.472 73.472 0 0 1-1.531 1.188c.66 3.656.768 7.392.656 12.719-.35 16.646-19.985 25.91-25.344 26.75-20.357 3.628-29.85 28.435-50.781 49.656 0 0 3.022-11.777-5.969-18.031-5.997-4.172-14.369-2.139-17.219 2.187-7.213 10.951 5.407 13.813 5.407 13.813s-8.084-2.953-2-9.906c2.243-2.564 6.953-3.235 10.156.25 5.757 6.262.273 19.428-3.094 22.25-9.855 8.259-22.566 13.106-37.656 13.874-5.377.274-10.05-.04-14.406-.624-.842.677-3.602 2.952-7.375 5.562-3.122 2.159-4.849 3.121-6.375 4.031 8.442 3.121 17.982 5.231 30.469 4.063 63.4-5.93 68.939-79.312 98.406-81.563 7.705-.588 11.827 1.951 12.094 6.657.254 4.502-.969 7.786-4.907 7.812-5.827.039-6.562-2.406-6.562-2.406s.723 5.424 7.25 4.937c3.453-.257 8.84-1.915 8.531-10.875-.119-3.442-2.533-7.645-6.656-9.625 4.292-2.232 20.648-12.126 21.156-28.812.158-5.202-1.274-9.716-2.969-14.907zm-234.75 18.594c44.49.333 74.625 33.844 74.625 33.844S248.86 169.082 276 169.875c10.487.306 13.887 6.847 14.031 12.219.171 6.348-5.625 8.969-5.625 8.968 0 .001 2.506-5.978 1.406-9.062-1.383-3.88-3.415-5.705-7.968-5.656-6.116.065-11.886 5.484-11.813 17.437.086 13.97.188 19.156.188 19.157 0 0-5.914 1.474-13.188 2.437-7.274.963-15.906 1.437-15.906 1.437s-24.789-31.815-67.281-30.5c-56.752 1.757-73.156 42.815-73.156 78.688 0 40.498 23.612 57.236 39.718 57.406 11.204.119 19.031-5.531 19.032-5.531 0 0-5.996 9.45-19.063 9.5-24.145.092-48.95-28.407-51.25-60.344-4.98-69.179 55.902-99.894 91.906-99.625zm194.375 37.032c-.442.287-.469.194-1 .656-.8.696-1.046 1.168-1.656 1.968 1.472 6.501 4.29 11.284 7.688 15.75-2.349-6.216-4.379-11.487-5.032-18.374zm29.233 25.978s-17.109-.904-34.14 9.934C355.5 246.349 345.252 263.003 340 270c10.004-10.869 22.092-14.034 29.074-15.811 7.595-1.933 25.823-1.657 36.395 1.123 0 0 .158-6.594-1.05-13.069-1.207-6.474-3.78-12.827-3.78-12.827zM83.031 230c-1.225 3.676-5.04 16.492-4.562 33.469.492 17.486 7.018 30.753 10.406 36.531H0v-70h83.031zm191.25 2.406c-11.385.65-6.031 13.219-6.031 13.219s-2.318-9.314 4.969-9.781c4.11-.264 5.286 1.768 5.469 4.125.653 8.448-12.834 17.305-24.376 23.812-1.755.99-3.452 1.942-5.062 2.813-12.945 7.004-41.167 13.503-71.812 5.375-2.141-.568-4.014-1.298-5.969-1.969l-2.907 2.156c2.352 1.095 4.761 2.191 7.438 3.188 27.209 10.129 55.687 8.889 79.094-6.313 20.795-13.506 28.142-19.689 27.594-29.719-.245-4.475-4.321-7.139-8.407-6.906zm-60.719 15c-2.43-.111-5-.072-7.718.094-38.29 2.344-51.438 32.776-71.282 33.312-7.747.21-9.46-3.328-9.843-6.406-.437-3.507 3.19-7.327 7.187-7.562 4.309-.254 8.125 4.531 8.125 4.531s-1.46-8.177-8.5-7.906c-5.113.196-12.057 5.046-12 11.125.057 6.078 1.914 13.165 15.094 12.468 26.222-1.385 23.915-25.154 71.406-29.187 14.671-1.246 25.025 3.876 35.969 9.125.616-.282 5.214-2.393 8.781-4.406 2.757-1.556 3.421-2.249 4.219-2.875-13.817-4.555-24.427-11.531-41.438-12.313zm-74.406 2.094s5.437 8.27 18.375 16.594l1.719-1.25c-13.512-7.129-20.094-15.344-20.094-15.344zm232.431 11.96c-13.874 2.439-23.508 8.09-31.587 18.54 3.273.487 16.898-.282 31.898 2.218S400 290 400 290s2.643-6.203 3.93-12.275c1.288-6.073 1.22-12.016 1.22-12.016s-19.778-6.673-33.563-4.249z"/></svg>

<?xml version="1.0" encoding="UTF-8" standalone="no"?>
<!DOCTYPE svg PUBLIC "-//W3C//DTD SVG 1.1//EN" "http://www.w3.org/Graphics/SVG/1.1/DTD/svg11.dtd">
<svg xmlns="http://www.w3.org/2000/svg" xmlns:xlink="http://www.w3.org/1999/xlink" width="100%" height="100%" version="1.1" viewBox="0 300 430 130" xml:space="preserve" preserveAspectRatio="none">
    <defs/>
    <g id="head-right" >
        <path fill="#FFFFFF" d="M360+0C407.084+0+430+65.4019+430+100C430+150+430+340+430+340C430+360+420+430+350+430C312.645+430+286.246+398.085+282.938+362.625C280.224+333.535+269.219+311.406+269.219+311.406C269.219+311.406+287.925+311.251+310.219+311.438C329.396+311.598+341.969+317+341.969+317C341.969+317+328.275+333.713+327.75+354.781C327.343+371.115+339.444+378.261+351.594+377.594C366.763+376.76+376.157+360.353+376.094+344.438C375.927+302.764+330+300+310+300C310+300+200.694+300+111.656+300C108.652+294.568+102.656+281.565+102.562+264.25C102.459+245.037+109.047+231.825+110+230C171.602+230+259.967+229.425+295.656+215.844C360.845+191.036+396.738+134.756+397.688+85.9375C398.591+39.4726+377.447+22.5287+359.656+22.4375C344.836+22.3615+338.99+30.7512+339.219+39.4375C339.447+48.1238+343.196+55.9427+352.281+56.4062C360.695+56.8355+369.062+51.5938+369.062+51.5938C369.062+51.5938+365.593+63.8405+351.75+63.6562C335.975+63.4463+326.031+51.8371+326.031+34.5938C326.031+21.0574+334-3.8147e-06+360+0ZM414.5+105.25C409.099+105.474+402.953+110.798+403.562+123.25C403.956+131.281+404.728+135.301+406.125+140.562C406.125+140.562+407.077+139.965+407.75+139.438C408.423+138.91+408.875+138.438+408.875+138.438C407.363+133.468+406.6+129.39+406.562+123.25C406.494+112.092+410.881+107.629+414.656+107.719C415.196+107.732+415.719+107.839+416.219+108.031C420.184+109.56+423.807+117.603+420.125+126.75C416.825+134.948+410.781+140.548+396.531+150.656C384.379+159.277+370.512+170.318+368.438+185.219C367.883+189.199+367.712+192.649+367.719+195.844L369.156+194.531L371.438+192.969C371.673+190.92+371.995+188.747+372.469+186.344C375.308+171.952+384.742+164.936+397.594+155.625C408.888+147.443+421.268+137.932+423.875+128.438C427.134+116.567+422.362+106.769+416.75+105.438C416.03+105.267+415.272+105.218+414.5+105.25ZM411.781+147.812C411.512+148.016+411.127+148.31+410.5+148.812C409.874+149.314+409.164+149.853+408.969+150C409.629+153.656+409.737+157.392+409.625+162.719C409.275+179.365+389.64+188.629+384.281+189.469C363.924+193.097+354.431+217.904+333.5+239.125C333.5+239.125+336.522+227.348+327.531+221.094C321.534+216.922+313.162+218.955+310.312+223.281C303.099+234.232+315.719+237.094+315.719+237.094C315.719+237.094+307.635+234.141+313.719+227.188C315.962+224.624+320.672+223.953+323.875+227.438C329.632+233.7+324.148+246.866+320.781+249.688C310.926+257.947+298.215+262.794+283.125+263.562C277.748+263.836+273.075+263.522+268.719+262.938C267.877+263.615+265.117+265.89+261.344+268.5C258.222+270.659+256.495+271.621+254.969+272.531C263.411+275.652+272.951+277.762+285.438+276.594C348.838+270.664+354.377+197.282+383.844+195.031C391.549+194.443+395.671+196.982+395.938+201.688C396.192+206.19+394.969+209.474+391.031+209.5C385.204+209.539+384.469+207.094+384.469+207.094C384.469+207.094+385.192+212.518+391.719+212.031C395.172+211.774+400.559+210.116+400.25+201.156C400.131+197.714+397.717+193.511+393.594+191.531C397.886+189.299+414.242+179.405+414.75+162.719C414.908+157.517+413.476+153.003+411.781+147.812ZM177.031+166.406C221.521+166.739+251.656+200.25+251.656+200.25C251.656+200.25+248.86+169.082+276+169.875C286.487+170.181+289.887+176.722+290.031+182.094C290.202+188.442+284.406+191.063+284.406+191.062C284.406+191.063+286.912+185.084+285.812+182C284.429+178.12+282.397+176.295+277.844+176.344C271.728+176.409+265.958+181.828+266.031+193.781C266.117+207.751+266.219+212.937+266.219+212.938C266.219+212.938+260.305+214.412+253.031+215.375C245.757+216.338+237.125+216.812+237.125+216.812C237.125+216.812+212.336+184.997+169.844+186.312C113.092+188.069+96.6875+229.127+96.6875+265C96.6876+305.498+120.3+322.236+136.406+322.406C147.61+322.525+155.437+316.875+155.438+316.875C155.438+316.875+149.442+326.325+136.375+326.375C112.23+326.467+87.4243+297.968+85.125+266.031C80.1442+196.852+141.027+166.137+177.031+166.406ZM371.406+203.438C370.964+203.725+370.937+203.632+370.406+204.094C369.606+204.79+369.36+205.262+368.75+206.062C370.222+212.563+373.04+217.346+376.438+221.812C374.089+215.596+372.059+210.325+371.406+203.438ZM400.639+229.416C400.639+229.416+383.53+228.512+366.499+239.35C355.5+246.349+345.252+263.003+340+270C350.004+259.131+362.092+255.966+369.074+254.189C376.669+252.256+394.897+252.532+405.469+255.312C405.469+255.312+405.627+248.718+404.419+242.243C403.212+235.769+400.639+229.416+400.639+229.416ZM83.0312+230C81.8064+233.676+77.9906+246.492+78.4688+263.469C78.9613+280.955+85.4866+294.222+88.875+300C50.4605+300+20.6862+300+0+300L0+230C13.3159+230+53.6356+230+83.0312+230ZM274.281+232.406C262.896+233.056+268.25+245.625+268.25+245.625C268.25+245.625+265.932+236.311+273.219+235.844C277.329+235.58+278.505+237.612+278.688+239.969C279.341+248.417+265.854+257.274+254.312+263.781C252.557+264.771+250.86+265.723+249.25+266.594C236.305+273.598+208.083+280.097+177.438+271.969C175.297+271.401+173.424+270.671+171.469+270L168.562+272.156C170.914+273.251+173.323+274.347+176+275.344C203.209+285.473+231.687+284.233+255.094+269.031C275.889+255.525+283.236+249.342+282.688+239.312C282.443+234.837+278.367+232.173+274.281+232.406ZM213.562+247.406C211.132+247.295+208.562+247.334+205.844+247.5C167.554+249.844+154.406+280.276+134.562+280.812C126.815+281.022+125.102+277.484+124.719+274.406C124.282+270.899+127.909+267.079+131.906+266.844C136.215+266.59+140.031+271.375+140.031+271.375C140.031+271.375+138.571+263.198+131.531+263.469C126.418+263.665+119.474+268.515+119.531+274.594C119.588+280.672+121.445+287.759+134.625+287.062C160.847+285.677+158.54+261.908+206.031+257.875C220.702+256.629+231.056+261.751+242+267C242.616+266.718+247.214+264.607+250.781+262.594C253.538+261.038+254.202+260.345+255+259.719C241.183+255.164+230.573+248.188+213.562+247.406ZM139.156+249.5C139.156+249.5+144.593+257.77+157.531+266.094L159.25+264.844C145.738+257.715+139.156+249.5+139.156+249.5ZM371.587+261.46C357.713+263.899+348.079+269.55+340+280C343.273+280.487+356.898+279.718+371.898+282.218C386.898+284.718+400+290+400+290C400+290+402.643+283.797+403.93+277.725C405.218+271.652+405.15+265.709+405.15+265.709C405.15+265.709+385.372+259.036+371.587+261.46Z" opacity="1"/>
    </g>
</svg>
